src/static/icons/telegram.svg

<svg width="24" height="24" viewBox="0 0 24 24" xmlns="http://www.w3.org/2000/svg">
<path d="M10.4934 13.6892L10.2618 16.9465C10.5931 16.9465 10.7366 16.8042 10.9087 16.6332L12.4621 15.1487L15.6809 17.5059C16.2713 17.8349 16.6872 17.6617 16.8464 16.9628L18.9593 7.06249L18.9599 7.0619C19.1471 6.18924 18.6443 5.84799 18.0691 6.06207L5.64994 10.8168C4.80235 11.1458 4.81519 11.6183 5.50585 11.8324L8.68094 12.82L16.056 8.20524C16.4031 7.9754 16.7187 8.10257 16.4591 8.3324L10.4934 13.6892Z"/>
</svg>

<svg width="24" height="24" xmlns="http://www.w3.org/2000/svg"><path d="M10.493 13.69l-.231 3.257c.331 0 .475-.143.647-.314l1.553-1.484 3.219 2.357c.59.329 1.006.156 1.165-.543l2.113-9.9v-.001c.188-.873-.315-1.214-.89-1L5.65 10.817c-.847.329-.834.801-.143 1.015l3.175.988 7.375-4.615c.347-.23.663-.102.403.127l-5.966 5.357z"/></svg>
